X:1
T:Beaver Dam Road
M:4/4
L:1/8
K:C
 D| D2 DD F2 D2| ^FA A2 A2 z F| D2 DD F2 G2| A2 AA A2 ^F2| D4 F2 GG|\
 AA A2A-G ^F2| D4A-G F2| D4 z2 z||
